SVG_Azure_All/Application Service Quota.svg

<?xml version="1.0" encoding="UTF-8" standalone="no"?>
<!-- Generated by Microsoft Visio, SVG Export Application Service Quota.svg Page-1 -->

<svg
   xmlns:dc="http://purl.org/dc/elements/1.1/"
   xmlns:cc="http://creativecommons.org/ns#"
   xmlns:rdf="http://www.w3.org/1999/02/22-rdf-syntax-ns#"
   xmlns:svg="http://www.w3.org/2000/svg"
   xmlns="http://www.w3.org/2000/svg"
   xmlns:sodipodi="http://sodipodi.sourceforge.net/DTD/sodipodi-0.dtd"
   xmlns:inkscape="http://www.inkscape.org/namespaces/inkscape"
   width="0.78736669in"
   height="0.78743529in"
   viewBox="0 0 56.69031 56.695652"
   xml:space="preserve"
   class="st4"
   version="1.1"
   id="svg40"
   sodipodi:docname="Application Service Quota.svg"
   style="font-size:12px;overflow:visible;color-interpolation-filters:sRGB;fill:none;fill-rule:evenodd;stroke-linecap:square;stroke-miterlimit:3"
   inkscape:version="0.92.5 (2060ec1f9f, 2020-04-08)"><metadata
   id="metadata44"><rdf:RDF><cc:Work
       rdf:about=""><dc:format>image/svg+xml</dc:format><dc:type
         rdf:resource="http://purl.org/dc/dcmitype/StillImage" /></cc:Work></rdf:RDF></metadata><sodipodi:namedview
   pagecolor="#ffffff"
   bordercolor="#666666"
   borderopacity="1"
   objecttolerance="10"
   gridtolerance="10"
   guidetolerance="10"
   inkscape:pageopacity="0"
   inkscape:pageshadow="2"
   inkscape:window-width="640"
   inkscape:window-height="480"
   id="namedview42"
   showgrid="false"
   inkscape:zoom="1.4193119"
   inkscape:cx="37.795128"
   inkscape:cy="37.786193"
   inkscape:window-x="0"
   inkscape:window-y="0"
   inkscape:window-maximized="0"
   inkscape:current-layer="svg40" />
	<style
   type="text/css"
   id="style2">
	<![CDATA[
		.st1 {fill:url(#grad3-6);stroke:none;stroke-linecap:butt;stroke-width:34}
		.st2 {fill:#0078d4;stroke:none;stroke-linecap:butt;stroke-width:34}
		.st3 {fill:#005ba1;stroke:none;stroke-linecap:butt;stroke-width:34}
		.st4 {fill:none;fill-rule:evenodd;font-size:12px;overflow:visible;stroke-linecap:square;stroke-miterlimit:3}
	]]>
	</style>

	<defs
   id="Patterns_And_Gradients">
		<radialGradient
   id="grad3-6"
   cx="26.639342"
   cy="97.501439"
   r="39.933022"
   gradientTransform="scale(0.9994309,1.0005694)"
   fx="26.639342"
   fy="97.501439"
   gradientUnits="userSpaceOnUse">
			<stop
   offset="0.5"
   stop-color="#b3b3b3"
   stop-opacity="1"
   id="stop4" />
			<stop
   offset="1"
   stop-color="#999999"
   stop-opacity="1"
   id="stop6" />
		</radialGradient>
	</defs>
	<g
   id="g38"
   transform="translate(-34.000441,-33.99865)">
		<title
   id="title10">Page-1</title>
		<g
   id="group9171-1"
   transform="translate(34,-34.0157)">
			<title
   id="title12">Application Service Quota</title>
			<g
   id="group9172-2">
				<title
   id="title14">Sheet.9172</title>
				<g
   id="shape9173-3"
   transform="translate(2.73071,-2.17565)">
					<title
   id="title16">Sheet.9173</title>
					<path
   d="M 26.62,70.19 A 27.3449,27.3753 -180 0 0 0,103.77 l 11.57,-2.71 a 15.474,15.4912 0 1 1 15.05,11.98 15.1181,15.1349 0 0 1 -1.93,-0.19 L 23.2,124.71 A 27.348,27.3785 -180 0 0 53.96,97.56 27.4677,27.4983 -180 0 0 26.62,70.19 Z"
   class="st1"
   id="path18"
   inkscape:connector-curvature="0"
   style="fill:url(#grad3-6);stroke:none;stroke-width:34;stroke-linecap:butt" />
				</g>
				<g
   id="shape9174-7">
					<title
   id="title21">Sheet.9174</title>
					<path
   d="M 28.4,124.71 V 112.06 A 15.4583,15.4755 0 0 1 12.7,96.83 V 96.31 H 0 a 28.3717,28.4032 -180 0 0 28.37,28.4 z"
   class="st2"
   id="path23"
   inkscape:connector-curvature="0"
   style="fill:#0078d4;stroke:none;stroke-width:34;stroke-linecap:butt" />
				</g>
				<g
   id="shape9175-9"
   transform="translate(12.6362,-12.6503)">
					<title
   id="title26">Sheet.9175</title>
					<path
   d="m 0,108.96 a 15.5811,15.5984 -180 0 0 15.37,15.75 h 0.39 l -1,-1.89 A 13.6661,13.6813 0 0 1 1.91,109.89 Z"
   class="st3"
   id="path28"
   inkscape:connector-curvature="0"
   style="fill:#005ba1;stroke:none;stroke-width:34;stroke-linecap:butt" />
				</g>
				<g
   id="shape9176-11"
   transform="translate(20.3874,-21.7249)">
					<title
   id="title31">Sheet.9176</title>
					<path
   d="M 3.63,116.94 A 3.50236,3.50626 0 0 1 1,115.91 a 3.84882,3.8531 0 0 1 -1,-2.8 4.22362,4.22832 0 0 1 1.06,-3.03 3.72598,3.73013 0 0 1 2.84,-1.12 3.46457,3.46842 0 0 1 2.65,1.01 4.0063,4.01076 0 0 1 0.95,2.86 4.16378,4.16841 0 0 1 -1.06,3 3.69449,3.6986 0 0 1 -2.81,1.11 z M 14.81,109.17 4.84,124.5 H 2.23 l 9.96,-15.33 z m -10.97,1.66 c -1.04,0 -1.58,0.73 -1.58,2.18 0,1.37 0.5,2.05 1.48,2.05 0.99,0 1.52,-0.72 1.52,-2.14 0,-1.43 -0.45,-2.09 -1.42,-2.09 z m 9.33,13.88 a 3.48346,3.48734 0 0 1 -2.63,-1.04 3.84882,3.8531 0 0 1 -1.01,-2.78 4.21732,4.22201 0 0 1 1.07,-3.04 3.71024,3.71436 0 0 1 2.83,-1.12 3.46457,3.46842 0 0 1 2.66,1 3.9748,3.97922 0 0 1 0.95,2.84 4.20472,4.2094 0 0 1 -1.06,3.02 3.69134,3.69544 0 0 1 -2.81,1.12 z m 0.17,-6.11 c -1.03,0 -1.55,0.73 -1.55,2.17 0,1.37 0.5,2.06 1.51,2.06 1,0 1.51,-0.72 1.51,-2.14 a 2.55118,2.55402 -180 0 0 -0.4,-1.54 1.25984,1.26124 -180 0 0 -1.07,-0.54 z"
   class="st2"
   id="path33"
   inkscape:connector-curvature="0"
   style="fill:#0078d4;stroke:none;stroke-width:34;stroke-linecap:butt" />
				</g>
			</g>
		</g>
	</g>
</svg>

<?xml version="1.0" encoding="UTF-8" standalone="no"?>
<!DOCTYPE svg PUBLIC "-//W3C//DTD SVG 1.1//EN" "http://www.w3.org/Graphics/SVG/1.1/DTD/svg11.dtd">
<!-- Generated by Microsoft Visio, SVG Export Application Service Quota.svg Page-1 -->
<svg xmlns="http://www.w3.org/2000/svg" xmlns:xlink="http://www.w3.org/1999/xlink" xmlns:ev="http://www.w3.org/2001/xml-events"
		width="1.73185in" height="1.73206in" viewBox="0 0 124.693 124.709" xml:space="preserve" color-interpolation-filters="sRGB"
		class="st4">
	<style type="text/css">
	<![CDATA[
		.st1 {fill:url(#grad3-6);stroke:none;stroke-linecap:butt;stroke-width:34}
		.st2 {fill:#0078d4;stroke:none;stroke-linecap:butt;stroke-width:34}
		.st3 {fill:#005ba1;stroke:none;stroke-linecap:butt;stroke-width:34}
		.st4 {fill:none;fill-rule:evenodd;font-size:12px;overflow:visible;stroke-linecap:square;stroke-miterlimit:3}
	]]>
	</style>

	<defs id="Patterns_And_Gradients">
		<radialGradient id="grad3-6" cx="0.5" cy="0.5" r="0.73">
			<stop offset="0.5" stop-color="#b3b3b3" stop-opacity="1"/>
			<stop offset="1" stop-color="#999999" stop-opacity="1"/>
		</radialGradient>
	</defs>
	<g>
		<title>Page-1</title>
		<g id="group8976-1" transform="translate(34,-34.0157)">
			<title>Application Service Quota</title>
			<g id="group8977-2">
				<title>Sheet.8977</title>
				<g id="shape8978-3" transform="translate(2.73071,-2.17565)">
					<title>Sheet.8978</title>
					<path d="M26.62 70.19 A27.3449 27.3753 -180 0 0 -0 103.77 L11.57 101.06 A15.474 15.4912 0 1 1 26.62 113.04 A15.1181
								 15.1349 0 0 1 24.69 112.85 L23.2 124.71 A27.348 27.3785 -180 0 0 53.96 97.56 A27.4677 27.4983 -180
								 0 0 26.62 70.19 Z" class="st1"/>
				</g>
				<g id="shape8979-7">
					<title>Sheet.8979</title>
					<path d="M28.4 124.71 L28.4 112.06 A15.4583 15.4755 0 0 1 12.7 96.83 L12.7 96.31 L0 96.31 A28.3717 28.4032 -180
								 0 0 28.37 124.71 L28.4 124.71 Z" class="st2"/>
				</g>
				<g id="shape8980-9" transform="translate(12.6362,-12.6503)">
					<title>Sheet.8980</title>
					<path d="M0 108.96 A15.5811 15.5984 -180 0 0 15.37 124.71 L15.76 124.71 L14.76 122.82 A13.6661 13.6813 0 0 1
								 1.91 109.89 L0 108.96 Z" class="st3"/>
				</g>
				<g id="shape8981-11" transform="translate(20.3874,-21.7249)">
					<title>Sheet.8981</title>
					<path d="M3.63 116.94 A3.50236 3.50626 0 0 1 1 115.91 A3.84882 3.8531 0 0 1 0 113.11 A4.22362 4.22832 0 0 1 1.06
								 110.08 A3.72598 3.73013 0 0 1 3.9 108.96 A3.46457 3.46842 0 0 1 6.55 109.97 A4.0063 4.01076 0 0
								 1 7.5 112.83 A4.16378 4.16841 0 0 1 6.44 115.83 A3.69449 3.6986 0 0 1 3.63 116.94 ZM14.81 109.17
								 L4.84 124.5 L2.23 124.5 L12.19 109.17 L14.81 109.17 ZM3.84 110.83 C2.8 110.83 2.26 111.56 2.26 113.01
								 C2.26 114.38 2.76 115.06 3.74 115.06 C4.73 115.06 5.26 114.34 5.26 112.92 C5.26 111.49 4.81 110.83
								 3.84 110.83 ZM13.17 124.71 A3.48346 3.48734 0 0 1 10.54 123.67 A3.84882 3.8531 0 0 1 9.53 120.89
								 A4.21732 4.22201 0 0 1 10.6 117.85 A3.71024 3.71436 0 0 1 13.43 116.73 A3.46457 3.46842 0 0 1 16.09
								 117.73 A3.9748 3.97922 0 0 1 17.04 120.57 A4.20472 4.2094 0 0 1 15.98 123.59 A3.69134 3.69544 0
								 0 1 13.17 124.71 ZM13.34 118.6 C12.31 118.6 11.79 119.33 11.79 120.77 C11.79 122.14 12.29 122.83
								 13.3 122.83 C14.3 122.83 14.81 122.11 14.81 120.69 A2.55118 2.55402 -180 0 0 14.41 119.15 A1.25984
								 1.26124 -180 0 0 13.34 118.61 L13.34 118.6 Z" class="st2"/>
				</g>
			</g>
		</g>
	</g>
</svg>
